tools/download-figma-icons/icons/outlined-large/gold-shiny.svg

<svg width="64" height="64" viewBox="0 0 64 64" fill="none" xmlns="http://www.w3.org/2000/svg">
<path fill-rule="evenodd" clip-rule="evenodd" d="M33.5001 24.4647C33.5001 25.2927 32.8291 25.9647 32.0001 25.9647C31.1711 25.9647 30.5001 25.2927 30.5001 24.4647V15.4997C30.5001 14.6717 31.1711 13.9997 32.0001 13.9997C32.8291 13.9997 33.5001 14.6717 33.5001 15.4997V24.4647ZM48.2014 53.9468L44.5894 60.9977H60.0463L56.4343 53.9468H52.4794H48.2014ZM27.8375 53.9468L24.2245 60.9977H39.6814L36.0694 53.9468H32.1144H27.8375ZM7.56653 53.9468L3.95454 60.9977H19.4105L15.7985 53.9468H11.7505H7.56653ZM19.1695 53.9468L21.8185 59.1167L24.4665 53.9468H19.1695ZM21.9325 43.8968H17.8165L14.2045 50.9468H16.7155H26.9205H29.6604L26.0485 43.8968H21.9325ZM36.2314 33.8468H27.9984L24.3865 40.8968H26.9655H37.2634H39.8434L36.2314 33.8468ZM29.4194 43.8968L32.1144 49.1578L34.8104 43.8968H29.4194ZM39.4404 53.9468L42.1354 59.2087L44.8314 53.9468H39.4404ZM47.2844 50.9468H50.0254L46.4134 43.8968H42.2974H38.1804L34.5684 50.9468H36.9864H47.2844ZM58.6863 51.7638L63.8353 61.8137C64.0733 62.2787 64.0523 62.8347 63.7793 63.2797C63.5073 63.7267 63.0223 63.9977 62.5003 63.9977H42.1354H21.8645H21.7715H1.50055C0.977553 63.9977 0.492555 63.7267 0.220556 63.2797C-0.0524426 62.8347 -0.0734425 62.2787 0.165557 61.8137L5.31454 51.7638C5.57154 51.2628 6.08653 50.9468 6.64953 50.9468H10.8335L15.5645 41.7138C15.8215 41.2128 16.3365 40.8968 16.8995 40.8968H21.0155L25.7465 31.6628C26.0035 31.1618 26.5185 30.8468 27.0815 30.8468H37.1484C37.7114 30.8468 38.2264 31.1618 38.4834 31.6628L43.2144 40.8968H47.3304C47.8934 40.8968 48.4084 41.2128 48.6654 41.7138L53.3964 50.9468H57.3513C57.9143 50.9468 58.4293 51.2628 58.6863 51.7638ZM53.8096 41.6619C54.1016 41.9489 54.4806 42.0919 54.8605 42.0919C55.2485 42.0919 55.6375 41.9409 55.9315 41.6419L62.2105 35.2439C62.7905 34.6519 62.7815 33.7029 62.1905 33.1229C61.5995 32.5419 60.6495 32.5519 60.0685 33.1419L53.7896 39.5409C53.2096 40.1329 53.2186 41.0819 53.8096 41.6619ZM41.7594 27.1293C41.6134 27.1293 41.4654 27.1083 41.3184 27.0633C40.5264 26.8203 40.0814 25.9813 40.3244 25.1893L42.9564 16.6193C43.2004 15.8263 44.0374 15.3853 44.8314 15.6253C45.6234 15.8693 46.0684 16.7083 45.8244 17.5003L43.1934 26.0703C42.9944 26.7153 42.4014 27.1293 41.7594 27.1293ZM47.7676 33.2136C48.0336 33.4056 48.3406 33.4976 48.6446 33.4976C49.1096 33.4976 49.5686 33.2816 49.8616 32.8766L55.1115 25.6097C55.5975 24.9387 55.4455 24.0007 54.7745 23.5157C54.1016 23.0277 53.1646 23.1817 52.6806 23.8527L47.4306 31.1186C46.9446 31.7906 47.0966 32.7286 47.7676 33.2136ZM9.14002 42.0913C8.75102 42.0913 8.36303 41.9413 8.06903 41.6423L1.79005 35.2443C1.21005 34.6523 1.21805 33.7033 1.81005 33.1223C2.40005 32.5413 3.35004 32.5513 3.93104 33.1423L10.211 39.5403C10.791 40.1323 10.782 41.0813 10.191 41.6623C9.89902 41.9493 9.51902 42.0913 9.14002 42.0913ZM20.8073 26.0702C21.0053 26.7162 21.5993 27.1302 22.2413 27.1302C22.3873 27.1302 22.5353 27.1082 22.6823 27.0632C23.4743 26.8202 23.9183 25.9812 23.6753 25.1892L21.0433 16.6192C20.8003 15.8262 19.9623 15.3852 19.1693 15.6262C18.3773 15.8692 17.9323 16.7082 18.1753 17.5002L20.8073 26.0702ZM15.3554 33.4977C14.8904 33.4977 14.4314 33.2817 14.1384 32.8767L8.88842 25.6098C8.40343 24.9388 8.55443 24.0008 9.22542 23.5158C9.89742 23.0288 10.8344 23.1818 11.3204 23.8528L16.5704 31.1187C17.0554 31.7907 16.9044 32.7287 16.2324 33.2137C15.9674 33.4057 15.6594 33.4977 15.3554 33.4977Z" fill="black"/>
</svg>

<svg xmlns="http://www.w3.org/2000/svg" width="64" height="64" fill="none" viewBox="0 0 64 64"><path fill="currentColor" fill-rule="evenodd" d="M33.5 24.465a1.5 1.5 0 1 1-3 0V15.5a1.5 1.5 0 1 1 3 0zm14.701 29.482-3.612 7.05h15.457l-3.612-7.05zm-20.364 0-3.613 7.05h15.457l-3.612-7.05zm-20.27 0-3.612 7.05H19.41l-3.611-7.05zm11.603 0 2.648 5.17 2.648-5.17zm2.762-10.05h-4.115l-3.613 7.05h15.457l-3.613-7.05zm14.3-10.05h-8.234l-3.611 7.05h15.456zm-6.813 10.05 2.695 5.26 2.696-5.26zm10.021 10.05 2.695 5.262 2.696-5.262zm7.844-3h2.741l-3.612-7.05H38.18l-3.612 7.05zm11.402.817 5.15 10.05a1.5 1.5 0 0 1-1.336 2.184H1.501a1.5 1.5 0 0 1-1.28-.718 1.5 1.5 0 0 1-.055-1.466l5.149-10.05a1.5 1.5 0 0 1 1.335-.817h4.184l4.73-9.233a1.5 1.5 0 0 1 1.335-.817h4.116l4.732-9.234a1.5 1.5 0 0 1 1.334-.816h10.067a1.5 1.5 0 0 1 1.335.816l4.731 9.234h4.116c.563 0 1.078.316 1.335.817l4.731 9.233h3.955c.563 0 1.078.316 1.335.817M53.81 41.662a1.5 1.5 0 0 0 2.122-.02l6.279-6.398a1.5 1.5 0 0 0-2.142-2.102l-6.28 6.399a1.5 1.5 0 0 0 .02 2.12M41.76 27.129q-.221.002-.442-.066a1.5 1.5 0 0 1-.994-1.874l2.632-8.57a1.5 1.5 0 1 1 2.868.881l-2.63 8.57a1.5 1.5 0 0 1-1.435 1.06m6.008 6.085a1.5 1.5 0 0 0 2.094-.337l5.25-7.267a1.5 1.5 0 1 0-2.431-1.757l-5.25 7.266a1.5 1.5 0 0 0 .337 2.095M9.14 42.09c-.389 0-.777-.15-1.071-.449L1.79 35.244a1.5 1.5 0 0 1 2.141-2.102l6.28 6.398a1.501 1.501 0 0 1-1.071 2.551m11.667-16.02a1.5 1.5 0 1 0 2.868-.882l-2.632-8.57a1.5 1.5 0 0 0-2.868.881zm-5.452 7.427a1.5 1.5 0 0 1-1.217-.621l-5.25-7.267a1.5 1.5 0 0 1 2.432-1.757l5.25 7.266a1.5 1.5 0 0 1-1.215 2.379" clip-rule="evenodd"/></svg>
